services/marketing/public/socketkit-logo.svg

<svg height="72" viewBox="0 0 447 72" width="447" xmlns="http://www.w3.org/2000/svg" xmlns:xlink="http://www.w3.org/1999/xlink"><defs><circle id="a" cx="35.99568" cy="35.99568" r="35.99568"/><mask id="b" fill="#fff"><use fill="#fff" fill-rule="evenodd" xlink:href="#a"/></mask></defs><g fill="none" fill-rule="evenodd"><use fill="#fb923c" fill-rule="nonzero" xlink:href="#a"/><path d="m36.795584 0h35.195776v71.991359h-35.195776z" fill="#f97316" fill-rule="nonzero" mask="url(#b)"/><path d="m30.3774739 13.0462741c2.1837379-1.0032876 4.3231611-1.5625005 6.4181096-1.6775747v9.4750388c-1.0712314.1617406-2.1712594.4450666-3.3004038.849818-2.0784706.7450306-4.1177458 2.1176658-6.1176658 4.1175858-3.3725552 3.3727151-4.0393551 6.0786304-2.0000799 8.1177456.9019718.9019717 1.8628164 1.1961764 2.882374.8824541.9803624-.3529177 2.1568612-1.0197176 3.5294964-2.00008l5.5882893-4.0588728c1.5686117-1.1764988 3.156901-2.1371835 4.7647081-2.882374 1.5687717-.7843859 3.1373834-1.2548894 4.7059951-1.4118306 1.607807-.1959764 3.1765787-.0391952 4.7059952.4706636 1.5294164.5098588 3.0196375 1.4902211 4.4706634 2.9412469 3.1764187 3.1764188 4.4509857 6.9215692 3.823541 11.2354515-.5882494 4.2745269-3.1373834 8.6666397-7.6472421 13.1764984-3.3725552 3.3727152-6.823501 5.8041034-10.3529973 7.2943245-1.7428309.724553-3.4271087 1.2046554-5.0526736 1.4403071v-9.7362714c.9517258-.1788585 1.8908131-.433228 2.8172619-.7629484 2.3138023-.9019717 4.490341-2.3726752 6.5296162-4.4119504 1.7253929-1.7253929 2.8235011-3.3333599 3.2941646-4.8235811.4313083-1.5294164.0979083-2.8431787-1.0000399-3.9411269-.8627765-.8627765-1.7844258-1.1176259-2.7647882-.7647082-1.0195576.3137223-2.215734.9606847-3.5882093 1.941207l-5.6471622 4.1175857c-1.5686117 1.1764988-3.1373834 2.1568612-4.7059951 2.941247-1.607807.7451906-3.1960964 1.1961764-4.7647081 1.3529576-1.5686118.1569412-3.1177058-.0195176-4.6471222-.5293764-1.5294165-.5098588-3.0196376-1.4902212-4.4706634-2.941247-3.1764828-3.1765787-4.4510178-6.8823739-3.8235571-11.1177056.6274607-4.2353316 3.1372394-8.5492138 7.5295122-12.9413267 2.9804423-2.9804422 5.9216893-5.0981081 8.823581-6.3531574z" fill="#fff" mask="url(#b)"/><path d="m108.756446 61c3.878302 0 7.323589-.6028946 10.335863-1.8086839 3.012273-1.2057892 5.389145-2.9023066 7.130616-5.0895522 1.74147-2.1872456 2.621619-4.7577265 2.640445-7.7114428-.018826-3.1406603-1.087242-5.6644052-3.205247-7.5712347-2.118004-1.9068295-5.342078-3.2715212-9.672221-4.0940751l-8.359059-1.5703302c-1.82619-.3738881-3.092286-.8692899-3.798288-1.4862053s-1.049589-1.3459973-1.030762-2.1872456c-.018827-1.0842756.531854-1.9442183 1.652043-2.5798281 1.12019-.6356098 2.480419-.9534148 4.080689-.9534148 1.223736 0 2.301566.2009649 3.233488.6028947.931922.4019297 1.689697.9534147 2.273325 1.654455.583628.7010402.941335 1.5002261 1.073122 2.3975576l12.679788-.3364993c-.357707-4.2623247-2.230965-7.6132972-5.619772-10.0529172-3.388808-2.4396201-8.020178-3.6594302-13.894111-3.6594302-3.915955 0-7.314176.5421378-10.1946627 1.6264134-2.8804864 1.0842756-5.102038 2.6499322-6.6646547 4.6969697-1.5626168 2.0470376-2.3345119 4.5100257-2.3156852 7.3889643-.0188267 3.2902156 1.035469 5.996231 3.162887 8.1180461 2.1274181 2.1218152 5.3656119 3.5753053 9.7145816 4.3604704l7.568337 1.4301221c1.807364.3364993 3.134647.7991859 3.981848 1.3880597.847202.5888738 1.280217 1.3693653 1.299043 2.3414745-.018826 1.0842756-.583628 1.9535655-1.694403 2.6078697-1.110776.6543042-2.551019.9814564-4.32073.9814564-1.957978 0-3.567661-.411277-4.829051-1.2338309-1.261389-.8225539-2.042697-2.0189959-2.343925-3.5893261l-13.63995.3364993c.5083211 4.2623248 2.5463123 7.6600332 6.1139735 10.1931253 3.5676613 2.5330921 8.4484855 3.7996382 14.6424725 3.7996382zm46.105469 0c4.556064 0 8.467312-.9300467 11.733746-2.7901402s5.7798-4.458616 7.540097-7.7955676 2.640446-7.2113674 2.640446-11.6232474c0-4.4305744-.880149-8.3143374-2.640446-11.651289s-4.273663-5.9354742-7.540097-7.7955676c-3.266434-1.8600935-7.177682-2.7901403-11.733746-2.7901403-4.556063 0-8.467312.9300468-11.733746 2.7901403-3.266434 1.8600934-5.779799 4.458616-7.540096 7.7955676-1.760298 3.3369516-2.640446 7.2207146-2.640446 11.651289 0 4.41188.880148 8.2862958 2.640446 11.6232474 1.760297 3.3369516 4.273662 5.9354741 7.540096 7.7955676s7.177683 2.7901402 11.733746 2.7901402zm.084721-10.3473541c-1.713231 0-3.158181-.504749-4.33485-1.514247s-2.070938-2.4115785-2.682806-4.2062415c-.611868-1.7946631-.917802-3.8697422-.917802-6.2252375 0-2.392884.305934-4.4866576.917802-6.2813206.611868-1.7946631 1.506137-3.1967436 2.682806-4.2062415 1.176669-1.009498 2.621619-1.514247 4.33485-1.514247 1.65675 0 3.05934.504749 4.207769 1.514247 1.148429 1.0094979 2.028578 2.4115784 2.640446 4.2062415.611868 1.794663.917802 3.8884366.917802 6.2813206 0 2.3554953-.305934 4.4305744-.917802 6.2252375-.611868 1.794663-1.492017 3.1967435-2.640446 4.2062415s-2.551019 1.514247-4.207769 1.514247zm48.133141 10.3473541c4.066569 0 7.582457-.7337555 10.547664-2.2012664 2.965206-1.4675109 5.271478-3.5285693 6.918815-6.183175 1.647337-2.6546058 2.536899-5.7578773 2.668686-9.3098146h-12.905709c-.16944 1.514247-.574214 2.7994874-1.214322 3.8557214-.640109 1.056234-1.454364 1.8554199-2.442766 2.3975577s-2.122711.8132067-3.402927.8132067c-1.600271 0-3.00286-.4439922-4.20777-1.3319765-1.204909-.8879843-2.141538-2.20594-2.809886-3.953867-.668348-1.7479271-1.002522-3.8931103-1.002522-6.4355496s.334174-4.6782753 1.002522-6.4075079 1.604977-3.0378411 2.809886-3.9258254c1.20491-.8879843 2.607499-1.3319765 4.20777-1.3319765 1.976804 0 3.581781.6262626 4.81493 1.8787879 1.23315 1.2525252 1.981511 2.9817579 2.245085 5.1876979h12.905709c-.094134-3.5332429-.983696-6.6131464-2.668686-9.2397106-1.68499-2.6265641-4.019502-4.6595809-7.003536-6.0990502-2.984033-1.4394693-6.481094-2.159204-10.491183-2.159204-4.537236 0-8.439072.9347204-11.705506 2.8041611-3.266434 1.8694406-5.779799 4.4726368-7.540096 7.8095884-1.760298 3.3369516-2.640446 7.2113674-2.640446 11.6232474 0 4.3931856.875442 8.2582542 2.626326 11.5952058 1.750883 3.3369516 4.259542 5.9401477 7.525976 7.8095884s7.187096 2.804161 11.761986 2.804161zm39.994337-56.1673584h-13.809391v55.3541517h13.809391l-.000121-12.9297781 2.794702-3.3596092 10.337048 16.2893873h15.955635l-16.02479-24.2987121 15.403509-18.7732011h-15.644995l-12.199707 15.4228856-.621402.0009614zm50.866746 56.1673584c3.784169 0 7.116496-.574853 9.996983-1.724559 2.880486-1.149706 5.210291-2.7667722 6.989415-4.8511986 1.779124-2.0844263 2.93226-4.5380672 3.459408-7.3609226l-12.679788-.364541c-.357708.9534148-.894269 1.7572743-1.609684 2.4115785s-1.57203 1.149706-2.569846 1.4862053c-.997815.3364994-2.108591.504749-3.332327.504749-1.769711 0-3.294674-.3645409-4.57489-1.0936228-1.280216-.7290818-2.268618-1.7526006-2.965207-3.0705563-.696588-1.3179557-1.044882-2.8555706-1.044882-4.6128448l-.001028-.3640923 28.918852-.0004487v-3.4210764c0-3.5332429-.517735-6.6692296-1.553203-9.4079602-1.035469-2.7387306-2.485126-5.0428162-4.34897-6.9122569s-4.075982-3.2808684-6.636415-4.2342831c-2.560432-.9534148-5.384438-1.4301222-8.472019-1.4301222-4.367796 0-8.161378.9300468-11.380745 2.7901403-3.219367 1.8600934-5.713906 4.458616-7.483616 7.7955676-1.769711 3.3369516-2.654566 7.2300618-2.654566 11.6793306 0 4.5801296.880149 8.5293231 2.640446 11.8475803s4.283076 5.8700437 7.568336 7.6553595c3.285261 1.7853159 7.19651 2.6779738 11.733746 2.6779738zm-8.314345-27.1457391c.086289-1.3302239.457332-2.5308527 1.113129-3.6018864.715415-1.1684004 1.684991-2.0937736 2.908727-2.7761194 1.223736-.6823459 2.607499-1.0235188 4.151289-1.0235188 1.524963 0 2.87578.3224785 4.052449.9674356 1.176669.644957 2.103885 1.5376149 2.781646 2.6779737.677762 1.1403588 1.026056 2.4396201 1.044883 3.8978479h-16.059296zm51.607012-29.0216193v12.2822385h7.822629v10.0949797l-7.822629.0002564.000131 19.4325794c0 .8412483.136494 1.5189206.409481 2.0330167.272987.5140962.673055.8786372 1.200203 1.0936228.527148.2149857 1.157842.3224786 1.892084.3224786.527148 0 1.087242-.0514097 1.680284-.1542289.593041-.1028192 1.040175-.1916177 1.341403-.2663953l2.089764 9.8986884c-.658935.1869441-1.58615.4206241-2.781646.7010402s-2.621619.458013-4.278369.5327906c-3.238194.1495553-6.010427-.2290065-8.316699-1.1356852-2.306271-.9066787-4.066569-2.32278-5.280891-4.2483039l-.186533-.308147c-1.087986-1.8735835-1.614143-4.1917935-1.578471-6.95463l-.000035-20.9468264-6.732698-.0002564v-10.0949797h6.732698l-.000097-12.2822385zm101.153118-.00001279-.000097 12.28225129h7.82273v10.0949797l-7.82273.0002564.000233 19.4325794c0 .8412483.136494 1.5189206.409481 2.0330167.272987.5140962.673055.8786372 1.200203 1.0936228.527147.2149857 1.157842.3224786 1.892084.3224786.527148 0 1.087242-.0514097 1.680283-.1542289.593042-.1028192 1.040176-.1916177 1.341403-.2663953l2.089765 9.8986884c-.658935.1869441-1.58615.4206241-2.781646.7010402s-2.621619.458013-4.27837.5327906c-3.238193.1495553-6.010426-.2290065-8.316698-1.1356852s-4.066569-2.32278-5.280892-4.2483039l-.186533-.308147c-1.087985-1.8735835-1.614142-4.1917935-1.578471-6.95463l-.000135-20.9468264-6.732597-.0002564v-10.0949797h6.732597v-12.28225129zm-71.595869.00001279-.000898 27.7060855.62218-.0009614 12.199707-15.4228856h15.644994l-15.403254 18.7732011 16.024536 24.2987121h-15.955636l-10.336793-16.2893873-2.795734 3.3606347.000898 12.9287526h-13.80939v-55.3541517zm46.207137 12.2822385v43.0719132h-13.809391v-43.0719132zm-6.890576-16.1148801c1.957978 0 3.628848.64028343 5.012612 1.92085029 1.383763 1.28056687 2.075644 2.81818182 2.075644 4.61284487 0 1.81335746-.691881 3.36031964-2.075644 4.64088644-1.383764 1.2805669-3.045221 1.9208503-4.984372 1.9208503-1.957977 0-3.633554-.6402834-5.026731-1.9208503-1.393176-1.2805668-2.089764-2.82752898-2.089764-4.64088644 0-1.79466305.696588-3.332278 2.089764-4.61284487 1.393177-1.28056686 3.05934-1.92085029 4.998491-1.92085029z" fill="#1c1917" fill-rule="nonzero"/></g></svg>

<?xml version="1.0" encoding="UTF-8"?>
<svg width="447px" height="72px" viewBox="0 0 447 72" version="1.1" xmlns="http://www.w3.org/2000/svg" xmlns:xlink="http://www.w3.org/1999/xlink">
    <title>logo-socketkit-color copy</title>
    <defs>
        <circle id="path-1" cx="35.9956795" cy="35.9956795" r="35.9956795"></circle>
    </defs>
    <g id="Page-1" stroke="none" stroke-width="1" fill="none" fill-rule="evenodd">
        <g id="SocketKit_Identity_1.2_Logos" transform="translate(-746.000000, -221.000000)">
            <g id="logo-socketkit-color-copy" transform="translate(746.000000, 221.000000)">
                <g id="icon">
                    <mask id="mask-2" fill="white">
                        <use xlink:href="#path-1"></use>
                    </mask>
                    <use id="Oval" fill="#FB923C" fill-rule="nonzero" xlink:href="#path-1"></use>
                    <rect id="Rectangle" fill="#F97316" fill-rule="nonzero" mask="url(#mask-2)" x="36.7955835" y="0" width="35.1957755" height="71.9913591"></rect>
                    <path d="M30.3774739,13.0462741 C32.5612118,12.0429865 34.700635,11.4837736 36.7955835,11.3686994 L36.7955835,20.8437382 C35.7243521,21.0054788 34.6243241,21.2888048 33.4951797,21.6935562 C31.4167091,22.4385868 29.3774339,23.811222 27.3775139,25.811142 C24.0049587,29.1838571 23.3381588,31.8897724 25.377434,33.9288876 C26.2794058,34.8308593 27.2402504,35.125064 28.259808,34.8113417 C29.2401704,34.458424 30.4166692,33.7916241 31.7893044,32.8112617 L37.3775937,28.7523889 C38.9462054,27.5758901 40.5344947,26.6152054 42.1423018,25.8700149 C43.7110735,25.085629 45.2796852,24.6151255 46.8482969,24.4581843 C48.4561039,24.2622079 50.0248756,24.4189891 51.5542921,24.9288479 C53.0837085,25.4387067 54.5739296,26.419069 56.0249555,27.8700948 C59.2013742,31.0465136 60.4759412,34.791664 59.8484965,39.1055463 C59.2602471,43.3800732 56.7111131,47.772186 52.2012544,52.2820447 C48.8286992,55.6547599 45.3777534,58.0861481 41.8482571,59.5763692 C40.1054262,60.3009222 38.4211484,60.7810246 36.7955835,61.0166763 L36.7955835,51.2804049 C37.7473093,51.1015464 38.6863966,50.8471769 39.6128454,50.5174565 C41.9266477,49.6154848 44.1031864,48.1447813 46.1424616,46.1055061 C47.8678545,44.3801132 48.9659627,42.7721462 49.4366262,41.281925 C49.8679345,39.7525086 49.5345345,38.4387463 48.4365863,37.3407981 C47.5738098,36.4780216 46.6521605,36.2231722 45.6717981,36.5760899 C44.6522405,36.8898122 43.4560641,37.5367746 42.0835888,38.5172969 L36.4364266,42.6348826 C34.8678149,43.8113814 33.2990432,44.7917438 31.7304315,45.5761296 C30.1226245,46.3213202 28.5343351,46.772306 26.9657234,46.9290872 C25.3971116,47.0860284 23.8480176,46.9095696 22.3186012,46.3997108 C20.7891847,45.889852 19.2989636,44.9094896 17.8479378,43.4584638 C14.671455,40.2818851 13.39692,36.5760899 14.0243807,32.3407582 C14.6518414,28.1054266 17.1616201,23.7915444 21.5538929,19.3994315 C24.5343352,16.4189893 27.4755822,14.3013234 30.3774739,13.0462741 Z" id="Path" fill="#FFFFFF" mask="url(#mask-2)"></path>
                </g>
                <path d="M108.756446,61 C112.634748,61 116.080035,60.3971054 119.092309,59.1913161 C122.104582,57.9855269 124.481454,56.2890095 126.222925,54.1017639 C127.964395,51.9145183 128.844544,49.3440374 128.86337,46.3903211 C128.844544,43.2496608 127.776128,40.7259159 125.658123,38.8190864 C123.540119,36.9122569 120.316045,35.5475652 115.985902,34.7250113 L115.985902,34.7250113 L107.626843,33.1546811 C105.800653,32.780793 104.534557,32.2853912 103.828555,31.6684758 C103.122553,31.0515604 102.778966,30.3224785 102.797793,29.4812302 C102.778966,28.3969546 103.329647,27.5370119 104.449836,26.9014021 C105.570026,26.2657923 106.930255,25.9479873 108.530525,25.9479873 C109.754261,25.9479873 110.832091,26.1489522 111.764013,26.550882 C112.695935,26.9528117 113.45371,27.5042967 114.037338,28.205337 C114.620966,28.9063772 114.978673,29.7055631 115.11046,30.6028946 L115.11046,30.6028946 L127.790248,30.2663953 C127.432541,26.0040706 125.559283,22.6530981 122.170476,20.2134781 C118.781668,17.773858 114.150298,16.5540479 108.276365,16.5540479 C104.36041,16.5540479 100.962189,17.0961857 98.0817023,18.1804613 C95.2012159,19.2647369 92.9796643,20.8303935 91.4170476,22.877431 C89.8544308,24.9244686 89.0825357,27.3874567 89.1013624,30.2663953 C89.0825357,33.5566109 90.1368314,36.2626263 92.2642494,38.3844414 C94.3916675,40.5062566 97.6298613,41.9597467 101.978831,42.7449118 L101.978831,42.7449118 L109.547168,44.1750339 C111.354532,44.5115332 112.681815,44.9742198 113.529016,45.5630936 C114.376218,46.1519674 114.809233,46.9324589 114.828059,47.9045681 C114.809233,48.9888437 114.244431,49.8581336 113.133656,50.5124378 C112.02288,51.166742 110.582637,51.4938942 108.812926,51.4938942 C106.854948,51.4938942 105.245265,51.0826172 103.983875,50.2600633 C102.722486,49.4375094 101.941178,48.2410674 101.63995,46.6707372 L101.63995,46.6707372 L88,47.0072365 C88.5083211,51.2695613 90.5463123,54.6672697 94.1139735,57.2003618 C97.6816348,59.7334539 102.562459,61 108.756446,61 Z M154.861915,61 C159.417979,61 163.329227,60.0699533 166.595661,58.2098598 C169.862095,56.3497663 172.375461,53.7512438 174.135758,50.4142922 C175.896055,47.0773406 176.776204,43.2029248 176.776204,38.7910448 C176.776204,34.3604704 175.896055,30.4767074 174.135758,27.1397558 C172.375461,23.8028042 169.862095,21.2042816 166.595661,19.3441882 C163.329227,17.4840947 159.417979,16.5540479 154.861915,16.5540479 C150.305852,16.5540479 146.394603,17.4840947 143.128169,19.3441882 C139.861735,21.2042816 137.34837,23.8028042 135.588073,27.1397558 C133.827775,30.4767074 132.947627,34.3604704 132.947627,38.7910448 C132.947627,43.2029248 133.827775,47.0773406 135.588073,50.4142922 C137.34837,53.7512438 139.861735,56.3497663 143.128169,58.2098598 C146.394603,60.0699533 150.305852,61 154.861915,61 Z M154.946636,50.6526459 C153.233405,50.6526459 151.788455,50.1478969 150.611786,49.1383989 C149.435117,48.1289009 148.540848,46.7268204 147.92898,44.9321574 C147.317112,43.1374943 147.011178,41.0624152 147.011178,38.7069199 C147.011178,36.3140359 147.317112,34.2202623 147.92898,32.4255993 C148.540848,30.6309362 149.435117,29.2288557 150.611786,28.2193578 C151.788455,27.2098598 153.233405,26.7051108 154.946636,26.7051108 C156.603386,26.7051108 158.005976,27.2098598 159.154405,28.2193578 C160.302834,29.2288557 161.182983,30.6309362 161.794851,32.4255993 C162.406719,34.2202623 162.712653,36.3140359 162.712653,38.7069199 C162.712653,41.0624152 162.406719,43.1374943 161.794851,44.9321574 C161.182983,46.7268204 160.302834,48.1289009 159.154405,49.1383989 C158.005976,50.1478969 156.603386,50.6526459 154.946636,50.6526459 Z M203.079777,61 C207.146346,61 210.662234,60.2662445 213.627441,58.7987336 C216.592647,57.3312227 218.898919,55.2701643 220.546256,52.6155586 C222.193593,49.9609528 223.083155,46.8576813 223.214942,43.305744 L223.214942,43.305744 L210.309233,43.305744 C210.139793,44.819991 209.735019,46.1052314 209.094911,47.1614654 C208.454802,48.2176994 207.640547,49.0168853 206.652145,49.5590231 C205.663743,50.1011609 204.529434,50.3722298 203.249218,50.3722298 C201.648947,50.3722298 200.246358,49.9282376 199.041448,49.0402533 C197.836539,48.152269 196.89991,46.8343133 196.231562,45.0863863 C195.563214,43.3384592 195.22904,41.193276 195.22904,38.6508367 C195.22904,36.1083974 195.563214,33.9725614 196.231562,32.2433288 C196.89991,30.5140962 197.836539,29.2054877 199.041448,28.3175034 C200.246358,27.4295191 201.648947,26.9855269 203.249218,26.9855269 C205.226022,26.9855269 206.830999,27.6117895 208.064148,28.8643148 C209.297298,30.11684 210.045659,31.8460727 210.309233,34.0520127 L210.309233,34.0520127 L223.214942,34.0520127 C223.120808,30.5187698 222.231246,27.4388663 220.546256,24.8123021 C218.861266,22.185738 216.526754,20.1527212 213.54272,18.7132519 C210.558687,17.2737826 207.061626,16.5540479 203.051537,16.5540479 C198.514301,16.5540479 194.612465,17.4887683 191.346031,19.358209 C188.079597,21.2276496 185.566232,23.8308458 183.805935,27.1677974 C182.045637,30.504749 181.165489,34.3791648 181.165489,38.7910448 C181.165489,43.1842304 182.040931,47.049299 183.791815,50.3862506 C185.542698,53.7232022 188.051357,56.3263983 191.317791,58.195839 C194.584225,60.0652797 198.504887,61 203.079777,61 Z M243.074114,4.8326416 L229.264723,4.8326416 L229.264723,60.1867933 L243.074114,60.1867933 L243.073993,47.2570152 L245.868695,43.897406 L256.205743,60.1867933 L272.161378,60.1867933 L256.136588,35.8880812 L271.540097,17.1148801 L255.895102,17.1148801 L243.695395,32.5377657 L243.073993,32.5387271 L243.074114,4.8326416 Z M293.94086,61 C297.725029,61 301.057356,60.425147 303.937843,59.275441 C306.818329,58.125735 309.148134,56.5086688 310.927258,54.4242424 C312.706382,52.3398161 313.859518,49.8861752 314.386666,47.0633198 L314.386666,47.0633198 L301.706878,46.6987788 C301.34917,47.6521936 300.812609,48.4560531 300.097194,49.1103573 C299.381779,49.7646615 298.525164,50.2600633 297.527348,50.5965626 C296.529533,50.933062 295.418757,51.1013116 294.195021,51.1013116 C292.42531,51.1013116 290.900347,50.7367707 289.620131,50.0076888 C288.339915,49.278607 287.351513,48.2550882 286.654924,46.9371325 C285.958336,45.6191768 285.610042,44.0815619 285.610042,42.3242877 L285.610042,42.3242877 L285.609014,41.9601954 L314.527866,41.9597467 L314.527866,38.5386703 C314.527866,35.0054274 314.010131,31.8694407 312.974663,29.1307101 C311.939194,26.3919795 310.489537,24.0878939 308.625693,22.2184532 C306.761849,20.3490125 304.549711,18.9375848 301.989278,17.9841701 C299.428846,17.0307553 296.60484,16.5540479 293.517259,16.5540479 C289.149463,16.5540479 285.355881,17.4840947 282.136514,19.3441882 C278.917147,21.2042816 276.422608,23.8028042 274.652898,27.1397558 C272.883187,30.4767074 271.998332,34.3698176 271.998332,38.8190864 C271.998332,43.399216 272.878481,47.3484095 274.638778,50.6666667 C276.399075,53.9849239 278.921854,56.5367104 282.207114,58.3220262 C285.492375,60.1073421 289.403624,61 293.94086,61 Z M285.626515,33.8542609 C285.712804,32.524037 286.083847,31.3234082 286.739644,30.2523745 C287.455059,29.0839741 288.424635,28.1586009 289.648371,27.4762551 C290.872107,26.7939092 292.25587,26.4527363 293.79966,26.4527363 C295.324623,26.4527363 296.67544,26.7752148 297.852109,27.4201719 C299.028778,28.0651289 299.955994,28.9577868 300.633755,30.0981456 C301.311517,31.2385044 301.659811,32.5377657 301.678638,33.9959935 L301.678638,33.9959935 L285.619342,33.9959935 L285.626515,33.8542609 Z M337.233527,4.8326416 L337.233527,17.1148801 L345.056156,17.1148801 L345.056156,27.2098598 L337.233527,27.2101162 L337.233658,46.6426956 C337.233658,47.4839439 337.370152,48.1616162 337.643139,48.6757123 C337.916126,49.1898085 338.316194,49.5543495 338.843342,49.7693351 C339.37049,49.9843208 340.001184,50.0918137 340.735426,50.0918137 C341.262574,50.0918137 341.822668,50.040404 342.41571,49.9375848 C343.008751,49.8347656 343.455885,49.7459671 343.757113,49.6711895 L343.757113,49.6711895 L345.846877,59.5698779 C345.187942,59.756822 344.260727,59.990502 343.065231,60.2709181 C341.869735,60.5513342 340.443612,60.7289311 338.786862,60.8037087 C335.548668,60.953264 332.776435,60.5747022 330.470163,59.6680235 C328.163892,58.7613448 326.403594,57.3452435 325.189272,55.4197196 L325.189272,55.4197196 L325.002739,55.1115726 C323.914753,53.2379891 323.388596,50.9197791 323.424268,48.1569426 L323.424268,48.1569426 L323.424233,27.2101162 L316.691535,27.2098598 L316.691535,17.1148801 L323.424233,17.1148801 L323.424136,4.8326416 L337.233527,4.8326416 Z M438.386645,4.83262881 L438.386548,17.1148801 L446.209278,17.1148801 L446.209278,27.2098598 L438.386548,27.2101162 L438.386781,46.6426956 C438.386781,47.4839439 438.523275,48.1616162 438.796262,48.6757123 C439.069249,49.1898085 439.469317,49.5543495 439.996465,49.7693351 C440.523612,49.9843208 441.154307,50.0918137 441.888549,50.0918137 C442.415697,50.0918137 442.975791,50.040404 443.568832,49.9375848 C444.161874,49.8347656 444.609008,49.7459671 444.910235,49.6711895 L444.910235,49.6711895 L447,59.5698779 C446.341065,59.756822 445.41385,59.990502 444.218354,60.2709181 C443.022858,60.5513342 441.596735,60.7289311 439.939984,60.8037087 C436.701791,60.953264 433.929558,60.5747022 431.623286,59.6680235 C429.317014,58.7613448 427.556717,57.3452435 426.342394,55.4197196 L426.342394,55.4197196 L426.155861,55.1115726 C425.067876,53.2379891 424.541719,50.9197791 424.57739,48.1569426 L424.57739,48.1569426 L424.577255,27.2101162 L417.844658,27.2098598 L417.844658,17.1148801 L424.577255,17.1148801 L424.577255,4.83262881 L438.386645,4.83262881 Z M366.790776,4.8326416 L366.789878,32.5387271 L367.412058,32.5377657 L379.611765,17.1148801 L395.256759,17.1148801 L379.853505,35.8880812 L395.878041,60.1867933 L379.922405,60.1867933 L369.585612,43.897406 L366.789878,47.2580407 L366.790776,60.1867933 L352.981386,60.1867933 L352.981386,4.8326416 L366.790776,4.8326416 Z M412.997913,17.1148801 L412.997913,60.1867933 L399.188522,60.1867933 L399.188522,17.1148801 L412.997913,17.1148801 Z M406.107337,1 C408.065315,1 409.736185,1.64028343 411.119949,2.92085029 C412.503712,4.20141716 413.195593,5.73903211 413.195593,7.53369516 C413.195593,9.34705262 412.503712,10.8940148 411.119949,12.1745816 C409.736185,13.4551485 408.074728,14.0954319 406.135577,14.0954319 C404.1776,14.0954319 402.502023,13.4551485 401.108846,12.1745816 C399.71567,10.8940148 399.019082,9.34705262 399.019082,7.53369516 C399.019082,5.73903211 399.71567,4.20141716 401.108846,2.92085029 C402.502023,1.64028343 404.168186,1 406.107337,1 Z" id="socketkit" fill="#1C1917" fill-rule="nonzero"></path>
            </g>
        </g>
    </g>
</svg>
